X: 121
T:Fine Times
K:A
M:4/4
L:1/8
||:"A"EFED C2 E2|A2 A2 AB c2|EFED C2 E3|"A"ABA=G "D"FE D2|!
EFED C2 E2|A2 A2 ABcd|e2 a2 e2 d2|1"E"cdBc A3 "A"E:||2"E"cdBc "A"A4|!
||:"A"edcB ABcd|e2 f2 "G"=g2 (3fgf|"A"edcB ABcd|e2 a2 a2 =gf|!
edcB ABcd|"A"e2 f2 =g2 (fgf|"A"e2 a2 e2 d2|1"E"cdBc "A"A3 e|2"E"cdBc "A"
 A4:||
% <A name="D1X122">
